static/images/contact/tv-red-vector.svg

<svg width="52" height="209" viewBox="0 0 52 209" fill="none" xmlns="http://www.w3.org/2000/svg">
<g opacity="0.9">
<path d="M9.33433 137.733V137.737C5.27563 133.677 4.42403 137.577 3.09148 140.28C-1.22752 143.044 -0.0556073 146.956 0.908456 150.824C-0.742235 153.197 0.927762 155.577 0.893484 157.953C1.74722 160.666 2.43914 163.596 6.43893 162.105C7.39978 162.65 8.36064 163.195 9.32256 163.74C9.65249 165.807 10.4259 165.944 12.0112 164.598C19.7077 158.065 18.5165 145.818 9.33433 137.733Z" fill="#FC6B7E"/>
<path d="M24.2531 10.6445C20.5008 9.85718 14.9649 11.961 14.9006 15.4274C16.3949 18.1899 9.2416 21.2803 15.2209 23.8725C16.4421 26.3609 14.4722 30.5556 20.7472 30.1293C23.8268 29.9204 24.0025 32.5245 26.508 29.6269C27.9787 25.4343 29.5458 21.2524 28.0258 16.7085C26.7372 14.7632 28.3333 11.5004 24.2531 10.6445ZM20.85 25.2876C19.8859 25.4033 18.9711 25.3208 18.0927 25.0969C18.9711 25.3208 19.8859 25.4022 20.85 25.2876ZM21.8279 26.4026C22.1761 27.1021 22.3871 27.9377 22.807 28.5654C22.3871 27.9388 22.1761 27.1021 21.8279 26.4026ZM22.1279 14.9785C20.5136 15.7583 18.7665 14.4055 17.1009 14.3583C18.7665 14.4044 20.5125 15.7573 22.1268 14.9764C23.1658 13.9609 23.8279 13.7531 24.2767 14.0006C23.8289 13.7542 23.167 13.963 22.1279 14.9785Z" fill="#FC6B7E"/>
<path d="M45.3304 137.584C53.1072 140.487 54.4944 139.843 54.1119 133.505C51.2015 134.365 48.2911 135.225 45.3807 136.089C45.3807 136.087 45.3807 136.086 45.3807 136.085C48.2911 135.225 51.2015 134.365 54.1119 133.504C53.0118 127.88 52.8887 121.906 48.3736 117.508C48.6468 113.583 45.7718 115.014 43.8394 114.843L43.7504 114.817C39.1904 112.251 38.7619 112.499 36.5596 118.953C35.7776 119.193 35.0128 119.447 35.3599 120.54L35.0268 120.316C31.3515 120.395 32.3295 123.505 32.0317 125.455C31.9396 126.057 32.5909 129.502 35.2902 127.332C37.1423 128.017 36.8724 129.399 36.3089 130.748C34.9914 133.899 38.1974 130.713 38.1267 132.072C38.5263 132.571 38.9269 133.07 39.3275 133.569C40.1245 136.708 41.4152 139.108 45.3304 137.584ZM45.4225 134.933C45.4579 132.634 45.1858 130.397 44.346 128.242C45.1858 130.397 45.4589 132.634 45.4225 134.933Z" fill="#FC6B7E"/>
<path d="M52.3322 33.7016C53.2106 35.5815 55.325 33.468 56.8943 33.6662C61.0559 35.0909 63.6985 33.076 65.7616 29.7499C71.5235 30.1206 71.0671 26.0898 71.0071 22.3385C69.5546 18.5711 69.7281 14.2157 66.8841 10.9518C66.6838 9.06762 67.7508 6.72494 65.0417 5.81658C64.9443 5.78444 64.3626 7.19836 64.007 7.93854C61.7382 7.97282 60.7334 4.08555 58.1058 5.9087C57.6313 6.23862 58.3351 8.26634 58.4947 9.51105L58.2429 9.37291C57.191 9.00014 55.7814 8.00927 55.1536 8.3724C53.3905 9.3911 55.1044 10.8383 55.2436 12.1247C52.0922 16.4277 52.0579 23.9763 55.1825 25.4074C55.2136 25.8745 55.3668 26.2976 55.6421 26.6768C54.1682 28.8813 50.8432 30.5148 52.3322 33.7016ZM59.6912 30.7933C59.8744 28.4602 61.3022 27.4298 62.9165 26.5954C61.3022 27.4298 59.8743 28.4603 59.6922 30.7944C58.8739 31.33 58.0555 31.8677 57.2381 32.4044C58.0555 31.8677 58.8739 31.3299 59.6912 30.7933Z" fill="#FC6B7E"/>
<path d="M56.6419 186.769C55.1519 181.716 51.6138 183.169 48.2321 184.122C47.7961 183.816 47.3376 183.78 46.8588 184.013C45.1439 183.375 43.2778 182.985 41.7439 182.05C38.2315 179.908 39.9304 182.919 39.668 184.006C38.5015 186.555 41.6989 188.491 40.6556 191.024C37.2289 195.525 38.3719 199.345 42.4006 202.734C41.8714 204.335 40.3054 205.732 42.3053 207.602C45.2928 210.393 44.1401 203.787 46.6114 205.86C47.7736 210 51.466 207.545 51.9459 206.736C53.7016 203.774 56.8251 201.044 55.4893 196.908C55.5429 196.439 55.5965 195.969 55.65 195.499C57.1347 194.375 56.4384 192.608 56.9161 191.188C57.9048 191.526 59.4302 192.43 59.7826 192.096C60.8335 191.1 59.4827 190.08 58.9985 189.214C58.4662 188.257 57.4485 187.573 56.6419 186.769Z" fill="#FC6B7E"/>
<path d="M19.6604 78.5625C19.6282 78.1415 19.6989 77.7387 19.8692 77.352C17.8169 77.3392 15.7645 77.3263 13.7121 77.3135C13.2622 77.4538 12.8016 77.5127 12.3302 77.4913C11.951 78.3889 11.5729 79.2855 11.1937 80.1832C11.5729 79.2855 11.9511 78.3879 12.3292 77.4891C12.8005 77.5138 13.2611 77.4549 13.711 77.3135C15.7645 77.3274 17.8169 77.3392 19.8692 77.352C21.7588 76.78 20.8504 75.4753 20.6544 74.357C20.7851 73.3436 20.332 72.9248 19.3347 73.0587L19.4568 72.6677C17.4837 72.1053 15.4731 67.645 13.5536 72.7224L13.7292 73.1701C12.1235 75.7571 5.67177 70.1622 6.76009 77.2974C6.49765 77.7119 6.36701 78.165 6.36486 78.6556C4.82129 79.1087 4.98841 80.3428 5.05054 81.5286C4.08862 86.7698 3.40626 91.8697 10.8113 92.8584C13.8149 93.6639 16.6161 93.9318 17.9272 90.203C18.3375 89.7156 18.7477 89.2293 19.159 88.7429C19.6796 87.2936 21.0722 86.1357 20.6169 84.3618C22.2505 82.1059 23.3484 79.9389 19.6604 78.5625ZM9.38449 83.9859C9.61694 84.0223 9.80652 83.9719 9.9597 83.8508C9.80652 83.9719 9.61801 84.0223 9.38449 83.9859ZM13.3747 90.083C13.1347 90.1055 12.8969 90.1333 12.6569 90.158C12.8958 90.1333 13.1337 90.1055 13.3747 90.083ZM18.1093 84.6906C18.1382 83.4759 17.834 82.1766 18.0075 80.9972C17.834 82.1755 18.1371 83.4749 18.1093 84.6906Z" fill="#FC6B7E"/>
</g>
</svg>

<svg xmlns="http://www.w3.org/2000/svg" width="52" height="209" fill="none" viewBox="0 0 52 209"><g fill="#fc6b7e" opacity=".9"><path d="M9.334 137.733v.004c-4.058-4.06-4.91-.16-6.243 2.543-4.319 2.764-3.147 6.676-2.183 10.544-1.65 2.373.02 4.753-.015 7.129.854 2.713 1.546 5.643 5.546 4.152l2.884 1.635c.33 2.067 1.103 2.204 2.688.858 7.697-6.533 6.506-18.78-2.677-26.865M24.253 10.645c-3.752-.788-9.288 1.316-9.352 4.782 1.494 2.763-5.66 5.853.32 8.446 1.221 2.488-.749 6.683 5.526 6.256 3.08-.209 3.256 2.396 5.761-.502 1.47-4.193 3.038-8.375 1.518-12.918-1.289-1.946.307-5.209-3.773-6.064m-2.425 15.758c.348.7.56 1.535.979 2.162-.42-.626-.63-1.463-.98-2.162m.3-11.424c-1.614.78-3.361-.573-5.027-.62 1.666.045 3.412 1.398 5.026.617 1.039-1.015 1.7-1.223 2.15-.975-.448-.247-1.11-.038-2.15.978M45.33 137.584c7.777 2.903 9.164 2.259 8.782-4.079q-4.365 1.289-8.731 2.584v-.004l8.73-2.581c-1.1-5.624-1.222-11.598-5.737-15.996.273-3.925-2.602-2.494-4.535-2.665l-.089-.026c-4.56-2.566-4.988-2.318-7.19 4.136-.782.24-1.547.494-1.2 1.587l-.333-.224c-3.675.079-2.697 3.189-2.995 5.139-.092.602.559 4.047 3.258 1.877 1.852.685 1.582 2.067 1.019 3.416-1.318 3.151 1.888-.035 1.818 1.324l1.2 1.497c.797 3.139 2.088 5.539 6.003 4.015m.093-2.651c.035-2.299-.237-4.536-1.077-6.691.84 2.155 1.113 4.392 1.077 6.691M52.332 33.702c.879 1.88 2.993-.234 4.562-.036 4.162 1.425 6.805-.59 8.868-3.916 5.761.37 5.305-3.66 5.245-7.411-1.452-3.768-1.279-8.123-4.123-11.387-.2-1.884.867-4.227-1.842-5.135-.098-.033-.68 1.381-1.035 2.122-2.269.034-3.274-3.853-5.901-2.03-.475.33.23 2.357.389 3.602l-.252-.138c-1.052-.373-2.462-1.364-3.09-1-1.762 1.018-.049 2.465.09 3.752-3.15 4.303-3.185 11.851-.06 13.282q.045.701.46 1.27c-1.475 2.204-4.8 3.838-3.31 7.025m7.36-2.909c.182-2.333 1.61-3.363 3.224-4.198-1.614.835-3.042 1.865-3.224 4.2q-1.227.804-2.454 1.61zM56.642 186.769c-1.49-5.053-5.028-3.6-8.41-2.647q-.654-.459-1.373-.109c-1.715-.638-3.581-1.028-5.115-1.963-3.513-2.142-1.814.869-2.076 1.956-1.166 2.549 2.03 4.485.988 7.018-3.427 4.501-2.284 8.321 1.745 11.71-.53 1.601-2.096 2.998-.096 4.868 2.988 2.791 1.835-3.815 4.306-1.742 1.163 4.14 4.855 1.685 5.335.876 1.756-2.962 4.88-5.692 3.543-9.828l.161-1.409c1.485-1.124.788-2.891 1.266-4.311.989.338 2.514 1.242 2.867.908 1.05-.996-.3-2.016-.785-2.882-.532-.957-1.55-1.641-2.356-2.445M19.66 78.563a2.5 2.5 0 0 1 .21-1.211l-6.158-.038q-.675.21-1.382.177l-1.136 2.692 1.135-2.694q.707.037 1.382-.175l6.158.038c1.89-.572.981-1.877.785-2.995.131-1.013-.322-1.432-1.32-1.298l.123-.391c-1.973-.563-3.984-5.023-5.903.054l.175.448c-1.605 2.587-8.057-3.008-6.969 4.127a2.5 2.5 0 0 0-.395 1.359c-1.544.453-1.377 1.687-1.314 2.873-.962 5.24-1.645 10.34 5.76 11.33 3.004.805 5.805 1.073 7.116-2.656q.614-.73 1.232-1.46c.52-1.45 1.913-2.607 1.458-4.381 1.633-2.256 2.731-4.423-.957-5.8m-6.286 11.52q-.358.036-.717.075.358-.039.718-.075m4.735-5.392c.03-1.215-.275-2.514-.102-3.694-.173 1.178.13 2.478.102 3.694"/></g></svg>
